X:0313
T:Nottingham Races.
M:2/4
L:1/16
Q:1/4=104
I: :: :: ::
Z:Jack Campin * www.campin.me.uk * 2009
K:G
gaba g2d2|efgf e2B2|c2B2  A2G2 |F2G2 A2D2|
gaba g2d2|efgf e2B2|g2f2  e2d2 |A2^c2 d4:|
defe d2e2|fgag f2g2|a2b2  c'2b2|agfe  d4 |
e2c2 g2e2|d2f2 g2a2|c'2b2 a2g2 |d2f2  g4:|
g2f2 g2f2|e4   d2g2|f3g   a2g2 |c'2b2 a4 |
g2f2 g2f2|e4   d2g2|f2g2  bagf |g4    G4:|
<end>
<start>
